X: 33468
T: Racine Le Beau
R: reel
M: 4/4
K: Gmajor
ABBA GD~D2|FGAF D2DE|DEFG ABcA|BdcA BG~G2|
ABBA GD~D2|FGAF D2DE|DEFG ABcA|BGAF G2z2:|
|:FGAF D2DB,|CDEG FEDE|FGAF D2c2-|cBAG Add2|
FGAF D2DB,|CDEG FEDE|DEFG ABcA|B/c/BAF G2z2:|

